X:14287
T:Rights of Man
M:C|
L:1/8
K:E Minor
GA|(3BcB (3ABA (3GAG (3FGF|EFGA B2ef|gfed edBd|cBAG A2GA|!
(3BcB (3ABA (3GAG (3FGF|EFGA B2ef|gfed Bgfg|e2E2 E2:|!
ga|bgbg efga|bgbg egfe|d^cdc defg|afdf a2gf|!
edef gfga|(3bag (3agf gfef|gfed Bgfg|e2E2 E2:|!


